austria/municipalities/32217.svg

<?xml version="1.0" encoding="UTF-8"?>
<!DOCTYPE svg PUBLIC "-//W3C//DTD SVG 1.1//EN" "http://www.w3.org/Graphics/SVG/1.1/DTD/svg11.dtd">
<svg xmlns="http://www.w3.org/2000/svg" version="1.1" width="95px" height="99px" style="shape-rendering:geometricPrecision; text-rendering:geometricPrecision; image-rendering:optimizeQuality; fill-rule:evenodd; clip-rule:evenodd" xmlns:xlink="http://www.w3.org/1999/xlink">
<g><path style="opacity:1" fill="#fafbfa" d="M -0.5,-0.5 C 31.1667,-0.5 62.8333,-0.5 94.5,-0.5C 94.5,32.5 94.5,65.5 94.5,98.5C 62.8333,98.5 31.1667,98.5 -0.5,98.5C -0.5,65.5 -0.5,32.5 -0.5,-0.5 Z"/></g>
<g><path style="opacity:1" fill="#777c76" d="M 3.5,2.5 C 32.6619,1.50194 61.9953,1.16861 91.5,1.5C 91.8222,7.358 91.4889,13.0247 90.5,18.5C 90.5,13.1667 90.5,7.83333 90.5,2.5C 61.5,2.5 32.5,2.5 3.5,2.5 Z"/></g>
<g><path style="opacity:1" fill="#1a2941" d="M 3.5,2.5 C 32.5,2.5 61.5,2.5 90.5,2.5C 90.5,7.83333 90.5,13.1667 90.5,18.5C 90.8261,27.0168 90.4927,35.3501 89.5,43.5C 89.5,30.1667 89.5,16.8333 89.5,3.5C 61.1667,3.5 32.8333,3.5 4.5,3.5C 4.5,9.5 4.5,15.5 4.5,21.5C 4.16667,21.5 3.83333,21.5 3.5,21.5C 3.5,15.1667 3.5,8.83333 3.5,2.5 Z"/></g>
<g><path style="opacity:1" fill="#5374ac" d="M 89.5,43.5 C 88.3126,46.9458 87.6459,50.6125 87.5,54.5C 82.9733,70.2112 73.64,82.2112 59.5,90.5C 56.5152,91.3257 53.8485,92.659 51.5,94.5C 47.0192,94.5745 42.6859,93.9079 38.5,92.5C 35.2957,91.6167 32.6291,89.9501 30.5,87.5C 27.8279,83.7875 24.8279,81.1208 21.5,79.5C 12.2323,70.8722 6.89901,60.2055 5.5,47.5C 5.63204,38.8089 5.29871,30.1423 4.5,21.5C 4.5,15.5 4.5,9.5 4.5,3.5C 32.8333,3.5 61.1667,3.5 89.5,3.5C 89.5,16.8333 89.5,30.1667 89.5,43.5 Z"/></g>
<g><path style="opacity:1" fill="#d5d5d5" d="M 59.5,27.5 C 51.5,28.8333 43.5,28.8333 35.5,27.5C 38.7425,20.6803 42.7425,14.3469 47.5,8.5C 51.7469,14.6564 55.7469,20.9898 59.5,27.5 Z"/></g>
<g><path style="opacity:1" fill="#35435b" d="M 3.5,21.5 C 3.83333,21.5 4.16667,21.5 4.5,21.5C 5.29871,30.1423 5.63204,38.8089 5.5,47.5C 4.08524,39.0387 3.41857,30.372 3.5,21.5 Z"/></g>
<g><path style="opacity:1" fill="#a2a6ae" d="M 21.5,25.5 C 23.0481,25.8212 23.7148,26.8212 23.5,28.5C 20.7524,28.5983 20.0857,27.5983 21.5,25.5 Z"/></g>
<g><path style="opacity:1" fill="#404142" d="M 35.5,27.5 C 43.5,28.8333 51.5,28.8333 59.5,27.5C 60.625,28.3478 60.625,29.3478 59.5,30.5C 59.1667,30.5 58.8333,30.5 58.5,30.5C 57.5,30.5 56.5,30.5 55.5,30.5C 55.5,31.5 55.5,32.5 55.5,33.5C 54.5,33.5 53.5,33.5 52.5,33.5C 52.5,32.5 52.5,31.5 52.5,30.5C 51.5,30.5 50.5,30.5 49.5,30.5C 49.5,31.5 49.5,32.5 49.5,33.5C 48.1667,33.5 46.8333,33.5 45.5,33.5C 45.5,32.5 45.5,31.5 45.5,30.5C 44.5,30.5 43.5,30.5 42.5,30.5C 42.5,31.5 42.5,32.5 42.5,33.5C 41.1667,33.5 39.8333,33.5 38.5,33.5C 38.5,32.5 38.5,31.5 38.5,30.5C 37.5,30.5 36.5,30.5 35.5,30.5C 34.375,29.3478 34.375,28.3478 35.5,27.5 Z"/></g>
<g><path style="opacity:1" fill="#fbfbfb" d="M 35.5,30.5 C 36.5,30.5 37.5,30.5 38.5,30.5C 38.5,31.5 38.5,32.5 38.5,33.5C 39.8333,33.5 41.1667,33.5 42.5,33.5C 42.5,32.5 42.5,31.5 42.5,30.5C 43.5,30.5 44.5,30.5 45.5,30.5C 45.5,31.5 45.5,32.5 45.5,33.5C 46.8333,33.5 48.1667,33.5 49.5,33.5C 49.5,32.5 49.5,31.5 49.5,30.5C 50.5,30.5 51.5,30.5 52.5,30.5C 52.5,31.5 52.5,32.5 52.5,33.5C 53.5,33.5 54.5,33.5 55.5,33.5C 55.5,32.5 55.5,31.5 55.5,30.5C 56.5,30.5 57.5,30.5 58.5,30.5C 58.8214,36.0262 58.4881,41.3595 57.5,46.5C 50.6866,45.5088 43.6866,45.1755 36.5,45.5C 35.7704,51.7527 36.1038,54.4194 37.5,53.5C 43.8333,53.5 50.1667,53.5 56.5,53.5C 56.5,55.5 56.5,57.5 56.5,59.5C 50.1318,59.1703 43.7985,59.5037 37.5,60.5C 37.6236,61.1067 37.9569,61.44 38.5,61.5C 39.7997,64.4323 41.7997,66.7656 44.5,68.5C 41.7131,69.4767 38.7131,69.81 35.5,69.5C 35.5,56.5 35.5,43.5 35.5,30.5 Z"/></g>
<g><path style="opacity:1" fill="#c7c7c6" d="M 77.5,40.5 C 73.5,41.8333 69.5,41.8333 65.5,40.5C 67.4242,36.9784 69.5909,33.6451 72,30.5C 73.5918,34.0211 75.4251,37.3544 77.5,40.5 Z"/></g>
<g><path style="opacity:1" fill="#c9c9c9" d="M 21.5,29.5 C 24.1975,33.0522 26.5308,36.8856 28.5,41C 24.4589,41.8265 20.4589,41.6599 16.5,40.5C 18.4526,36.9307 20.1192,33.264 21.5,29.5 Z"/></g>
<g><path style="opacity:1" fill="#575757" d="M 37.5,40.5 C 40.2469,40.1866 42.9135,40.52 45.5,41.5C 44.1667,41.8333 42.8333,42.1667 41.5,42.5C 39.6672,42.4146 38.3339,41.7479 37.5,40.5 Z"/></g>
<g><path style="opacity:1" fill="#5f5f5f" d="M 48.5,40.5 C 51.5719,40.1826 54.5719,40.5159 57.5,41.5C 56,41.8333 54.5,42.1667 53,42.5C 51.0145,42.4313 49.5145,41.7647 48.5,40.5 Z"/></g>
<g><path style="opacity:1" fill="#4f5156" d="M 65.5,40.5 C 69.5,41.8333 73.5,41.8333 77.5,40.5C 78.7152,41.779 78.3818,42.779 76.5,43.5C 73.1667,42.1667 69.8333,42.1667 66.5,43.5C 64.6182,42.779 64.2848,41.779 65.5,40.5 Z"/></g>
<g><path style="opacity:1" fill="#d2d2d2" d="M 17.5,42.5 C 20.8333,42.5 24.1667,42.5 27.5,42.5C 27.5,45.5 27.5,48.5 27.5,51.5C 26.5,51.5 25.5,51.5 24.5,51.5C 24.7845,49.5853 24.4511,47.9187 23.5,46.5C 22.5,45.1667 21.5,45.1667 20.5,46.5C 19.8365,48.0419 19.1698,49.7086 18.5,51.5C 17.5159,48.5719 17.1826,45.5719 17.5,42.5 Z"/></g>
<g><path style="opacity:1" fill="#91959d" d="M 35.5,30.5 C 35.5,43.5 35.5,56.5 35.5,69.5C 38.7131,69.81 41.7131,69.4767 44.5,68.5C 46.1667,69.8333 47.8333,69.8333 49.5,68.5C 52.2869,69.4767 55.2869,69.81 58.5,69.5C 58.8333,69.5 59.1667,69.5 59.5,69.5C 59.5,69.8333 59.5,70.1667 59.5,70.5C 51.1667,70.5 42.8333,70.5 34.5,70.5C 34.8016,67.9407 34.4682,65.6074 33.5,63.5C 34.7416,61.3888 34.7416,59.3888 33.5,57.5C 34.1414,48.401 34.8081,39.401 35.5,30.5 Z"/></g>
<g><path style="opacity:1" fill="#080808" d="M 23.5,46.5 C 23.5,48.5 23.5,50.5 23.5,52.5C 22.5,52.5 21.5,52.5 20.5,52.5C 20.5,50.5 20.5,48.5 20.5,46.5C 21.5,45.1667 22.5,45.1667 23.5,46.5 Z"/></g>
<g><path style="opacity:1" fill="#a77e81" d="M 57.5,46.5 C 50.8333,46.5 44.1667,46.5 37.5,46.5C 37.5,48.5 37.5,50.5 37.5,52.5C 44.1667,52.5 50.8333,52.5 57.5,52.5C 57.5,53.1667 57.1667,53.5 56.5,53.5C 50.1667,53.5 43.8333,53.5 37.5,53.5C 36.1038,54.4194 35.7704,51.7527 36.5,45.5C 43.6866,45.1755 50.6866,45.5088 57.5,46.5 Z"/></g>
<g><path style="opacity:1" fill="#c7c6c6" d="M 76.5,43.5 C 76.815,47.3714 76.4816,51.0381 75.5,54.5C 73.0521,53.5269 70.3854,53.1936 67.5,53.5C 66.5863,50.272 66.2529,46.9387 66.5,43.5C 69.8333,42.1667 73.1667,42.1667 76.5,43.5 Z"/></g>
<g><path style="opacity:1" fill="#111212" d="M 70.5,45.5 C 71.4959,45.4142 72.3292,45.7476 73,46.5C 73.4955,48.4727 73.6621,50.4727 73.5,52.5C 72.1667,52.5 70.8333,52.5 69.5,52.5C 69.298,50.0504 69.6314,47.717 70.5,45.5 Z"/></g>
<g><path style="opacity:1" fill="#c2c3c4" d="M 58.5,30.5 C 58.8333,30.5 59.1667,30.5 59.5,30.5C 59.5,39.1667 59.5,47.8333 59.5,56.5C 59.3253,58.6208 59.6586,60.6208 60.5,62.5C 59.5318,64.6074 59.1984,66.9407 59.5,69.5C 59.1667,69.5 58.8333,69.5 58.5,69.5C 58.6658,64.8215 58.4992,60.1548 58,55.5C 57.8019,57.3817 57.3019,59.0484 56.5,60.5C 56.5,60.1667 56.5,59.8333 56.5,59.5C 56.5,57.5 56.5,55.5 56.5,53.5C 57.1667,53.5 57.5,53.1667 57.5,52.5C 57.5,50.5 57.5,48.5 57.5,46.5C 58.4881,41.3595 58.8214,36.0262 58.5,30.5 Z"/></g>
<g><path style="opacity:1" fill="#1f293a" d="M 89.5,43.5 C 89.7489,47.4578 89.0823,51.1244 87.5,54.5C 87.6459,50.6125 88.3126,46.9458 89.5,43.5 Z"/></g>
<g><path style="opacity:1" fill="#dd1327" d="M 57.5,46.5 C 57.5,48.5 57.5,50.5 57.5,52.5C 50.8333,52.5 44.1667,52.5 37.5,52.5C 37.5,50.5 37.5,48.5 37.5,46.5C 44.1667,46.5 50.8333,46.5 57.5,46.5 Z"/></g>
<g><path style="opacity:1" fill="#8d8d8f" d="M 17.5,42.5 C 17.1826,45.5719 17.5159,48.5719 18.5,51.5C 19.1698,49.7086 19.8365,48.0419 20.5,46.5C 20.5,48.5 20.5,50.5 20.5,52.5C 21.5,52.5 22.5,52.5 23.5,52.5C 23.5,50.5 23.5,48.5 23.5,46.5C 24.4511,47.9187 24.7845,49.5853 24.5,51.5C 25.5,51.5 26.5,51.5 27.5,51.5C 27.1667,52.1667 26.8333,52.8333 26.5,53.5C 23.6146,53.1936 20.9479,53.5269 18.5,54.5C 16.9827,52.5379 16.3161,50.2046 16.5,47.5C 16.5068,45.6307 16.8401,43.964 17.5,42.5 Z"/></g>
<g><path style="opacity:1" fill="#eaeaea" d="M 26.5,53.5 C 24.5282,56.1789 24.1948,59.0123 25.5,62C 29.2147,62.4675 31.8814,60.9675 33.5,57.5C 34.7416,59.3888 34.7416,61.3888 33.5,63.5C 29.0666,66.4248 24.8999,66.0914 21,62.5C 20.9029,59.5177 20.0696,56.8511 18.5,54.5C 20.9479,53.5269 23.6146,53.1936 26.5,53.5 Z"/></g>
<g><path style="opacity:1" fill="#f3f3f2" d="M 58.5,69.5 C 55.2869,69.81 52.2869,69.4767 49.5,68.5C 51.8333,66.8333 53.8333,64.8333 55.5,62.5C 56.3382,62.1583 56.6716,61.4916 56.5,60.5C 57.3019,59.0484 57.8019,57.3817 58,55.5C 58.4992,60.1548 58.6658,64.8215 58.5,69.5 Z"/></g>
<g><path style="opacity:1" fill="#eeeeed" d="M 67.5,53.5 C 70.3854,53.1936 73.0521,53.5269 75.5,54.5C 73.9304,56.8511 73.0971,59.5177 73,62.5C 70.0913,65.3939 66.5913,66.2272 62.5,65C 61.6195,64.2917 60.9528,63.4584 60.5,62.5C 59.6586,60.6208 59.3253,58.6208 59.5,56.5C 61.5,57.976 63.1666,59.8094 64.5,62C 67.5667,63.1642 69.2334,62.1642 69.5,59C 69.2421,56.9907 68.5755,55.1573 67.5,53.5 Z"/></g>
<g><path style="opacity:1" fill="#9f595e" d="M 56.5,59.5 C 56.5,59.8333 56.5,60.1667 56.5,60.5C 56.6716,61.4916 56.3382,62.1583 55.5,62.5C 53.0849,61.1858 50.2515,60.5191 47,60.5C 43.9792,60.5022 41.1459,60.8356 38.5,61.5C 37.9569,61.44 37.6236,61.1067 37.5,60.5C 43.7985,59.5037 50.1318,59.1703 56.5,59.5 Z"/></g>
<g><path style="opacity:1" fill="#d81929" d="M 55.5,62.5 C 53.8333,64.8333 51.8333,66.8333 49.5,68.5C 47.8333,69.8333 46.1667,69.8333 44.5,68.5C 41.7997,66.7656 39.7997,64.4323 38.5,61.5C 41.1459,60.8356 43.9792,60.5022 47,60.5C 50.2515,60.5191 53.0849,61.1858 55.5,62.5 Z"/></g>
<g><path style="opacity:1" fill="#e9e9e9" d="M 34.5,70.5 C 42.8333,70.5 51.1667,70.5 59.5,70.5C 60.1667,70.8333 60.8333,71.1667 61.5,71.5C 51.8333,72.8333 42.1667,72.8333 32.5,71.5C 33.1667,71.1667 33.8333,70.8333 34.5,70.5 Z"/></g>
<g><path style="opacity:1" fill="#a8a7a8" d="M 32.5,71.5 C 42.1667,72.8333 51.8333,72.8333 61.5,71.5C 62.391,72.1098 63.391,72.4431 64.5,72.5C 64.5,72.8333 64.5,73.1667 64.5,73.5C 53.1667,73.5 41.8333,73.5 30.5,73.5C 30.5,75.5 30.5,77.5 30.5,79.5C 30.1667,79.5 29.8333,79.5 29.5,79.5C 28.9006,76.0524 29.9006,73.3857 32.5,71.5 Z"/></g>
<g><path style="opacity:1" fill="#fefefe" d="M 64.5,73.5 C 64.5,75.5 64.5,77.5 64.5,79.5C 53.1667,79.5 41.8333,79.5 30.5,79.5C 30.5,77.5 30.5,75.5 30.5,73.5C 41.8333,73.5 53.1667,73.5 64.5,73.5 Z"/></g>
<g><path style="opacity:1" fill="#2f3541" d="M 30.5,87.5 C 26.8998,85.5698 23.8998,82.9031 21.5,79.5C 24.8279,81.1208 27.8279,83.7875 30.5,87.5 Z"/></g>
<g><path style="opacity:1" fill="#798394" d="M 64.5,72.5 C 65.4731,74.9479 65.8064,77.6146 65.5,80.5C 53.3217,80.8284 41.3217,80.4951 29.5,79.5C 29.8333,79.5 30.1667,79.5 30.5,79.5C 41.8333,79.5 53.1667,79.5 64.5,79.5C 64.5,77.5 64.5,75.5 64.5,73.5C 64.5,73.1667 64.5,72.8333 64.5,72.5 Z"/></g>
<g><path style="opacity:1" fill="#2b323b" d="M 59.5,90.5 C 57.4208,92.873 54.7541,94.2064 51.5,94.5C 53.8485,92.659 56.5152,91.3257 59.5,90.5 Z"/></g>
<g><path style="opacity:1" fill="#353f51" d="M 38.5,92.5 C 42.6859,93.9079 47.0192,94.5745 51.5,94.5C 46.8703,96.8706 42.537,96.2039 38.5,92.5 Z"/></g>
</svg>

<svg xmlns="http://www.w3.org/2000/svg" width="95" height="99" style="shape-rendering:geometricPrecision;text-rendering:geometricPrecision;image-rendering:optimizeQuality;fill-rule:evenodd;clip-rule:evenodd"><path style="opacity:1" fill="#fafbfa" d="M-.5-.5h95v99h-95v-99z"/><path style="opacity:1" fill="#777c76" d="M3.5 2.5a1936.592 1936.592 0 0 1 88-1c.322 5.858-.011 11.525-1 17v-16h-87z"/><path style="opacity:1" fill="#1a2941" d="M3.5 2.5h87v16c.326 8.517-.007 16.85-1 25v-40h-85v18h-1v-19z"/><path style="opacity:1" fill="#5374ac" d="M89.5 43.5c-1.187 3.446-1.854 7.112-2 11-4.527 15.711-13.86 27.711-28 36-2.985.826-5.651 2.159-8 4a38.472 38.472 0 0 1-13-2c-3.204-.883-5.87-2.55-8-5-2.672-3.713-5.672-6.38-9-8-9.268-8.628-14.601-19.294-16-32a242.322 242.322 0 0 0-1-26v-18h85v40z"/><path style="opacity:1" fill="#d5d5d5" d="M59.5 27.5c-8 1.333-16 1.333-24 0a93.836 93.836 0 0 1 12-19 277.695 277.695 0 0 1 12 19z"/><path style="opacity:1" fill="#35435b" d="M3.5 21.5h1a242.322 242.322 0 0 1 1 26c-1.415-8.461-2.081-17.128-2-26z"/><path style="opacity:1" fill="#a2a6ae" d="M21.5 25.5c1.548.321 2.215 1.321 2 3-2.748.098-3.414-.902-2-3z"/><path style="opacity:1" fill="#404142" d="M35.5 27.5c8 1.333 16 1.333 24 0 1.125.848 1.125 1.848 0 3h-4v3h-3v-3h-3v3h-4v-3h-3v3h-4v-3h-3c-1.125-1.152-1.125-2.152 0-3z"/><path style="opacity:1" fill="#fbfbfb" d="M35.5 30.5h3v3h4v-3h3v3h4v-3h3v3h3v-3h3c.321 5.526-.012 10.86-1 16-6.813-.991-13.813-1.325-21-1-.73 6.253-.396 8.92 1 8h19v6a91.124 91.124 0 0 0-19 1c.124.607.457.94 1 1 1.3 2.932 3.3 5.266 6 7-2.787.977-5.787 1.31-9 1v-39z"/><path style="opacity:1" fill="#c7c7c6" d="M77.5 40.5c-4 1.333-8 1.333-12 0a77.624 77.624 0 0 1 6.5-10 71.961 71.961 0 0 0 5.5 10z"/><path style="opacity:1" fill="#c9c9c9" d="M21.5 29.5a66.24 66.24 0 0 1 7 11.5c-4.041.827-8.041.66-12-.5a81.072 81.072 0 0 0 5-11z"/><path style="opacity:1" fill="#575757" d="M37.5 40.5c2.747-.313 5.413.02 8 1l-4 1c-1.833-.085-3.166-.752-4-2z"/><path style="opacity:1" fill="#5f5f5f" d="M48.5 40.5a21.12 21.12 0 0 1 9 1l-4.5 1c-1.986-.069-3.486-.735-4.5-2z"/><path style="opacity:1" fill="#4f5156" d="M65.5 40.5c4 1.333 8 1.333 12 0 1.215 1.279.882 2.279-1 3-3.333-1.333-6.667-1.333-10 0-1.882-.721-2.215-1.721-1-3z"/><path style="opacity:1" fill="#d2d2d2" d="M17.5 42.5h10v9h-3c.285-1.915-.049-3.581-1-5-1-1.333-2-1.333-3 0a111.25 111.25 0 0 0-2 5 21.12 21.12 0 0 1-1-9z"/><path style="opacity:1" fill="#91959d" d="M35.5 30.5v39c3.213.31 6.213-.023 9-1 1.667 1.333 3.333 1.333 5 0 2.787.977 5.787 1.31 9 1h1v1h-25c.302-2.56-.032-4.893-1-7 1.242-2.111 1.242-4.111 0-6 .641-9.099 1.308-18.099 2-27z"/><path style="opacity:1" fill="#080808" d="M23.5 46.5v6h-3v-6c1-1.333 2-1.333 3 0z"/><path style="opacity:1" fill="#a77e81" d="M57.5 46.5h-20v6h20c0 .667-.333 1-1 1h-19c-1.396.92-1.73-1.747-1-8 7.187-.325 14.187.009 21 1z"/><path style="opacity:1" fill="#c7c6c6" d="M76.5 43.5c.315 3.871-.018 7.538-1 11-2.448-.973-5.115-1.306-8-1-.914-3.228-1.247-6.561-1-10 3.333-1.333 6.667-1.333 10 0z"/><path style="opacity:1" fill="#111212" d="M70.5 45.5c.996-.086 1.83.248 2.5 1 .496 1.973.662 3.973.5 6h-4c-.202-2.45.131-4.783 1-7z"/><path style="opacity:1" fill="#c2c3c4" d="M58.5 30.5h1v26c-.175 2.12.159 4.12 1 6-.968 2.107-1.302 4.44-1 7h-1c.166-4.678 0-9.345-.5-14-.198 1.882-.698 3.548-1.5 5v-7c.667 0 1-.333 1-1v-6c.988-5.14 1.321-10.474 1-16z"/><path style="opacity:1" fill="#1f293a" d="M89.5 43.5c.249 3.958-.418 7.624-2 11 .146-3.888.813-7.554 2-11z"/><path style="opacity:1" fill="#dd1327" d="M57.5 46.5v6h-20v-6h20z"/><path style="opacity:1" fill="#8d8d8f" d="M17.5 42.5a21.12 21.12 0 0 0 1 9 111.25 111.25 0 0 1 2-5v6h3v-6c.951 1.419 1.285 3.085 1 5h3l-1 2c-2.885-.306-5.552.027-8 1-1.517-1.962-2.184-4.295-2-7 .007-1.87.34-3.536 1-5z"/><path style="opacity:1" fill="#eaeaea" d="M26.5 53.5c-1.972 2.679-2.305 5.512-1 8.5 3.715.468 6.381-1.032 8-4.5 1.242 1.889 1.242 3.889 0 6-4.433 2.925-8.6 2.591-12.5-1-.097-2.982-.93-5.649-2.5-8 2.448-.973 5.115-1.306 8-1z"/><path style="opacity:1" fill="#f3f3f2" d="M58.5 69.5c-3.213.31-6.213-.023-9-1a25.635 25.635 0 0 0 6-6c.838-.342 1.172-1.008 1-2 .802-1.452 1.302-3.118 1.5-5 .5 4.655.666 9.322.5 14z"/><path style="opacity:1" fill="#eeeeed" d="M67.5 53.5c2.885-.306 5.552.027 8 1-1.57 2.351-2.403 5.018-2.5 8-2.909 2.894-6.409 3.727-10.5 2.5-.88-.708-1.547-1.542-2-2.5-.841-1.88-1.175-3.88-1-6 2 1.476 3.667 3.31 5 5.5 3.067 1.164 4.733.164 5-3a13.013 13.013 0 0 0-2-5.5z"/><path style="opacity:1" fill="#9f595e" d="M56.5 59.5v1c.172.992-.162 1.658-1 2-2.415-1.314-5.248-1.98-8.5-2-3.02.002-5.854.336-8.5 1-.543-.06-.876-.393-1-1a91.124 91.124 0 0 1 19-1z"/><path style="opacity:1" fill="#d81929" d="M55.5 62.5a25.635 25.635 0 0 1-6 6c-1.667 1.333-3.333 1.333-5 0-2.7-1.734-4.7-4.068-6-7 2.646-.664 5.48-.998 8.5-1 3.252.02 6.085.686 8.5 2z"/><path style="opacity:1" fill="#e9e9e9" d="M34.5 70.5h25l2 1a105.628 105.628 0 0 1-29 0l2-1z"/><path style="opacity:1" fill="#a8a7a8" d="M32.5 71.5a105.628 105.628 0 0 0 29 0c.891.61 1.891.943 3 1v1h-34v6h-1c-.6-3.448.4-6.114 3-8z"/><path style="opacity:1" fill="#fefefe" d="M64.5 73.5v6h-34v-6h34z"/><path style="opacity:1" fill="#2f3541" d="M30.5 87.5c-3.6-1.93-6.6-4.597-9-8 3.328 1.62 6.328 4.287 9 8z"/><path style="opacity:1" fill="#798394" d="M64.5 72.5c.973 2.448 1.306 5.115 1 8-12.178.328-24.178-.005-36-1h35v-7z"/><path style="opacity:1" fill="#2b323b" d="M59.5 90.5c-2.08 2.373-4.746 3.706-8 4 2.349-1.841 5.015-3.174 8-4z"/><path style="opacity:1" fill="#353f51" d="M38.5 92.5a38.472 38.472 0 0 0 13 2c-4.63 2.37-8.963 1.704-13-2z"/></svg>
